ui/client/assets/img/toolbarButtons/import.svg

<svg xmlns="http://www.w3.org/2000/svg" viewBox="0 0 36 36"><g data-name="Layer 2"><path d="M16.22 4.94v10.39l-4.75-5.64v5.79L18 22.9l6.53-7.42V9.69l-4.75 5.64V4.94zM5.54 19.78h7.71l2.23 2.37H7.91v6.53h20.18v-6.53h-7.57l2.23-2.37h7.71v11.28H5.54zM15 24.53h6v1.78h-6z" fill="#b3b3b3" data-name="aplikacja główna"/></g></svg>

<svg xmlns="http://www.w3.org/2000/svg" viewBox="0 0 36 36"><defs><style>.cls-1{fill:none;}.cls-2{fill:#b3b3b3;}</style></defs><title>import</title><g id="Layer_2" data-name="Layer 2"><g id="aplikacja_główna" data-name="aplikacja główna"><rect class="cls-1" width="36" height="36"/><path class="cls-2" d="M16.22,4.94V15.33L11.47,9.69v5.79L18,22.9l6.53-7.42V9.69l-4.75,5.64V4.94ZM5.54,19.78h7.71l2.23,2.37H7.91v6.53H28.09V22.15H20.52l2.23-2.37h7.71V31.06H5.54ZM15,24.53H21v1.78H15Z"/></g></g></svg>
